libs/ui/packages/crypto-icons/src/svg/KNC.svg

<svg width="24" height="24" viewBox="0 0 24 24" fill="none">
<path d="M16.002 15.7725C15.9596 15.8333 15.9345 15.9046 15.9295 15.9785C15.9245 16.0525 15.9397 16.1265 15.9735 16.1925L11.529 19.671C11.4715 19.6257 11.4038 19.5953 11.3317 19.5825L11.1967 11.0205C11.2443 11.0105 11.2899 10.9928 11.3317 10.968L16.002 15.7733V15.7725ZM16.1265 15.654L11.46 10.8525C11.4974 10.8022 11.5227 10.744 11.534 10.6823C11.5453 10.6207 11.5423 10.5573 11.5252 10.497L16.2698 8.187C16.3315 8.2625 16.4168 8.31506 16.512 8.33625L16.2758 15.5947C16.223 15.6056 16.1727 15.6259 16.1273 15.6547L16.1265 15.654ZM11.0715 19.6117L8.559 16.2345C8.63343 16.1577 8.67511 16.055 8.67525 15.948C8.67333 15.8413 8.63168 15.7391 8.55846 15.6614C8.48523 15.5838 8.38568 15.5362 8.27925 15.528L7.49475 8.42775C7.58785 8.40654 7.6711 8.35461 7.7311 8.28033C7.7911 8.20604 7.82435 8.11373 7.8255 8.01825C7.8254 7.92065 7.79057 7.82627 7.72725 7.752L10.881 4.36725C10.9215 4.38975 10.9665 4.407 11.0145 4.41675V10.1948C10.9172 10.2123 10.8291 10.2631 10.7652 10.3385C10.7013 10.4139 10.6656 10.5092 10.6642 10.608C10.6659 10.708 10.7025 10.8042 10.7677 10.88C10.8329 10.9558 10.9226 11.0063 11.0212 11.0227L11.1562 19.5848C11.1274 19.591 11.0993 19.6 11.0722 19.6117H11.0715ZM11.19 10.1948V4.4175C11.2659 4.40247 11.3365 4.36782 11.3947 4.317L16.215 7.74825C16.1712 7.83833 16.1621 7.9414 16.1895 8.03775L11.4457 10.3477C11.3807 10.2689 11.2903 10.2151 11.19 10.1955V10.1948ZM11.1023 3.75C11.247 3.75 11.3647 3.86325 11.3647 4.00275C11.3642 4.03663 11.3569 4.07007 11.3434 4.10115C11.3299 4.13222 11.3104 4.16034 11.286 4.18388C11.2616 4.20742 11.2329 4.22593 11.2013 4.23834C11.1698 4.25076 11.1361 4.25685 11.1023 4.25625C11.0684 4.25685 11.0347 4.25076 11.0032 4.23834C10.9716 4.22593 10.9429 4.20742 10.9185 4.18388C10.8941 4.16034 10.8746 4.13222 10.8611 4.10115C10.8476 4.07007 10.8403 4.03663 10.8398 4.00275C10.8398 3.86325 10.9568 3.75 11.1023 3.75ZM7.3875 7.7655C7.533 7.7655 7.65 7.878 7.65 8.01825C7.64941 8.05213 7.64216 8.08557 7.62865 8.11665C7.61514 8.14772 7.59564 8.17584 7.57126 8.19938C7.54689 8.22292 7.51811 8.24143 7.48658 8.25384C7.45505 8.26626 7.42138 8.27235 7.3875 8.27175C7.35362 8.27235 7.31995 8.26626 7.28842 8.25384C7.25689 8.24143 7.22811 8.22292 7.20374 8.19938C7.17936 8.17584 7.15986 8.14772 7.14635 8.11665C7.13284 8.08557 7.12559 8.05213 7.125 8.01825C7.125 7.87875 7.24275 7.7655 7.3875 7.7655ZM8.23725 15.6945C8.38275 15.6945 8.49975 15.8077 8.49975 15.948C8.49837 16.0163 8.46996 16.0813 8.42075 16.1286C8.37154 16.176 8.30555 16.202 8.23725 16.2008C8.16895 16.202 8.10296 16.176 8.05375 16.1286C8.00454 16.0813 7.97613 16.0163 7.97475 15.948C7.97475 15.8077 8.0925 15.6945 8.23725 15.6945ZM16.6125 7.6725C16.7572 7.6725 16.875 7.78575 16.875 7.92525C16.8744 7.95913 16.8672 7.99257 16.8536 8.02365C16.8401 8.05472 16.8206 8.08284 16.7963 8.10638C16.7719 8.12992 16.7431 8.14843 16.7116 8.16084C16.6801 8.17326 16.6464 8.17935 16.6125 8.17875C16.5786 8.17935 16.545 8.17326 16.5134 8.16084C16.4819 8.14843 16.4531 8.12992 16.4287 8.10638C16.4044 8.08284 16.3849 8.05472 16.3714 8.02365C16.3578 7.99257 16.3506 7.95913 16.35 7.92525C16.35 7.78575 16.467 7.6725 16.6125 7.6725ZM11.1023 10.3553C11.247 10.3553 11.3647 10.4678 11.3647 10.608C11.3642 10.6419 11.3569 10.6753 11.3434 10.7064C11.3299 10.7375 11.3104 10.7656 11.286 10.7891C11.2616 10.8127 11.2329 10.8312 11.2013 10.8436C11.1698 10.856 11.1361 10.8621 11.1023 10.8615C11.0684 10.8621 11.0347 10.856 11.0032 10.8436C10.9716 10.8312 10.9429 10.8127 10.9185 10.7891C10.8941 10.7656 10.8746 10.7375 10.8611 10.7064C10.8476 10.6753 10.8403 10.6419 10.8398 10.608C10.8398 10.4685 10.9568 10.3553 11.1023 10.3553ZM11.2508 19.7438C11.3963 19.7438 11.5132 19.857 11.5132 19.9972C11.5119 20.0655 11.4835 20.1305 11.4343 20.1779C11.385 20.2253 11.3191 20.2512 11.2508 20.25C11.1824 20.2512 11.1165 20.2253 11.0672 20.1779C11.018 20.1305 10.9896 20.0655 10.9883 19.9972C10.9883 19.857 11.106 19.7438 11.2508 19.7438ZM16.3673 15.7537C16.512 15.7537 16.6298 15.867 16.6298 16.0072C16.6284 16.0755 16.6 16.1405 16.5508 16.1879C16.5015 16.2353 16.4356 16.2612 16.3673 16.26C16.2989 16.2612 16.233 16.2353 16.1837 16.1879C16.1345 16.1405 16.1061 16.0755 16.1047 16.0072C16.1047 15.867 16.2218 15.7537 16.3673 15.7537Z" fill="#188C92"/>
</svg>

<svg width="24" height="24" viewBox="0 0 24 24" fill="none"><path fill="#188c92" d="M16.002 15.773a.41.41 0 0 0-.028.42l-4.445 3.478a.44.44 0 0 0-.197-.088l-.135-8.562a.4.4 0 0 0 .135-.053zm.125-.119-4.667-4.802a.4.4 0 0 0 .065-.355l4.745-2.31a.44.44 0 0 0 .242.15l-.236 7.258a.5.5 0 0 0-.149.06zm-5.055 3.958-2.513-3.377a.41.41 0 0 0 0-.574.43.43 0 0 0-.28-.133l-.784-7.1a.425.425 0 0 0 .33-.41.4.4 0 0 0-.098-.266l3.154-3.385q.06.035.133.05v5.778a.425.425 0 0 0-.35.413.43.43 0 0 0 .357.415l.135 8.562zm.118-9.417V4.418a.44.44 0 0 0 .205-.101l4.82 3.431a.4.4 0 0 0-.026.29l-4.743 2.31a.44.44 0 0 0-.256-.153m-.088-6.445c.145 0 .263.113.263.253a.257.257 0 0 1-.263.253.26.26 0 0 1-.262-.253c0-.14.117-.253.262-.253M7.388 7.766c.145 0 .262.112.262.252a.26.26 0 0 1-.263.254.26.26 0 0 1-.262-.254c0-.14.118-.253.263-.253m.85 7.929c.145 0 .262.113.262.253a.26.26 0 0 1-.263.253.26.26 0 0 1-.262-.253c0-.14.117-.254.262-.254m8.375-8.022c.144 0 .262.113.262.252a.257.257 0 0 1-.262.254.26.26 0 0 1-.263-.254c0-.14.117-.252.262-.252m-5.51 2.682c.144 0 .262.113.262.253a.257.257 0 0 1-.263.253.26.26 0 0 1-.262-.253c0-.14.117-.253.262-.253m.148 9.389c.145 0 .262.113.262.253a.26.26 0 0 1-.262.253.26.26 0 0 1-.263-.253c0-.14.118-.253.263-.253m5.116-3.99c.145 0 .263.113.263.253a.26.26 0 0 1-.263.253.26.26 0 0 1-.262-.253c0-.14.117-.253.262-.253"/></svg>
